X:39
T:Braes of Balquidder, The
C:arr. Carlo Minasi
M:2/4
L:1/8
B:Chappell's One Hundred Scotch Melodies
B:Arranged for the Concertina by Carlo Minasi
Q:"Spiritoso  "1/4=140
Z:Peter Dunk 2012
K:D
!mf!(F>A)|L[B2G2D2]A>D|F2 (F>A)|L[B2G2D2]A>D|\
(F<E) (F>A)|L[B2G2D2]A>D|F2 (F>A)|
([BG]>[cA][dB]>[BG])|[AF]<F||F>A|([BG]>[cA][dB]>[BG])|\
[AF]<F ([fA]>[ec])|([dB]>B) A>F|F<E F>A|
([BG]>[cA][dB]>[BG])|[AF]<F ([fA]>[ec])|([dB]>B) (AF)|\
(F<E)!f! F>A|L[B2G2] A>D|F2 (F>A)|
L[B2G2] A>F|(F<E) (F>A)|L[B2G2] A>D|\
F2 F>A|([BG]>c) (e/d/c/B/)|A<F||
